Printex-remake/img/icons/catalog_small/07.svg

<svg width="86" height="87" viewBox="0 0 86 87" fill="none" xmlns="http://www.w3.org/2000/svg">
<path fill-rule="evenodd" clip-rule="evenodd" d="M62.3413 45.7305L47.6723 25.4361L38.2176 49.5594L32.3326 46.1222L17.6622 71.8276L33.0016 62.8678L33.0015 62.868L62.3413 45.7305Z" fill="#C4C4C4"/>
<ellipse rx="6.20676" ry="6.26066" transform="matrix(0.863488 -0.504369 -3.15241e-05 1 25.9159 40.0083)" fill="#C4C4C4"/>
<path d="M73.4455 50.2152L58.7765 29.9208L49.3218 54.044L43.437 50.6069L28.7666 76.3123L73.4455 50.2152Z" fill="#F2F2F2"/>
<path d="M73.4455 50.2152L58.7765 29.9208L49.3218 54.044L43.437 50.6069L28.7666 76.3123" stroke="black"/>
<ellipse rx="6.20676" ry="6.26065" transform="matrix(0.863488 -0.504369 -3.15241e-05 1 37.0204 44.4929)" fill="#F2F2F2"/>
<path d="M37.165 50.8728C34.2045 52.602 31.8046 51.205 31.8047 47.7524C31.8048 44.2999 34.2049 40.0991 37.1654 38.3699" stroke="black"/>
<path d="M18.4829 37.6274L73.7824 5.32654L73.781 50.1497L18.4814 82.4506L18.4829 37.6274Z" stroke="black" stroke-linejoin="bevel"/>
<ellipse rx="1.84095" ry="1.85693" transform="matrix(0.863488 -0.504369 -3.14692e-05 1 22.6111 41.581)" fill="black"/>
<path d="M15.1455 36.4634L23.2475 39.8383" stroke="black"/>
<path d="M13.2393 39.8383L21.8178 43.2131" stroke="black"/>
<ellipse rx="1.84095" ry="1.85693" transform="matrix(0.863489 -0.504368 -3.14692e-05 1 70.2693 12.6535)" fill="black"/>
<path d="M62.8037 7.53589L70.9057 10.9108" stroke="black"/>
<path d="M60.8975 10.9108L69.476 14.2857" stroke="black"/>
<ellipse rx="1.84095" ry="1.85694" transform="matrix(0.863488 -0.504369 -3.14691e-05 1 21.6579 76.2941)" fill="black"/>
<path d="M14.1924 71.1766L22.2943 74.5515" stroke="black"/>
<path d="M12.2861 74.5515L20.8647 77.9264" stroke="black"/>
</svg>

<svg width="86" height="87" fill="none" xmlns="http://www.w3.org/2000/svg"><path fill-rule="evenodd" clip-rule="evenodd" d="M62.341 45.73L47.672 25.436 38.218 49.56l-5.885-3.437-14.67 25.706 15.339-8.96 29.34-17.138z" fill="#C4C4C4"/><ellipse rx="6.207" ry="6.261" transform="matrix(.86349 -.50437 -.00003 1 25.916 40.008)" fill="#C4C4C4"/><path d="M73.445 50.215L58.777 29.921l-9.455 24.123-5.885-3.437-14.67 25.705 44.678-26.097z" fill="#F2F2F2"/><path d="M73.445 50.215L58.777 29.921l-9.455 24.123-5.885-3.437-14.67 25.705" stroke="#000"/><ellipse rx="6.207" ry="6.261" transform="matrix(.86349 -.50437 -.00003 1 37.02 44.493)" fill="#F2F2F2"/><path d="M37.165 50.873c-2.96 1.729-5.36.332-5.36-3.12 0-3.453 2.4-7.654 5.36-9.383" stroke="#000"/><path d="M18.483 37.627l55.3-32.3-.002 44.823-55.3 32.3.002-44.823z" stroke="#000" stroke-linejoin="bevel"/><ellipse rx="1.841" ry="1.857" transform="matrix(.86349 -.50437 -.00003 1 22.611 41.581)" fill="#000"/><path d="M15.146 36.463l8.101 3.375m-10.007 0l8.578 3.375" stroke="#000"/><ellipse rx="1.841" ry="1.857" transform="matrix(.86349 -.50437 -.00003 1 70.27 12.653)" fill="#000"/><path d="M62.804 7.536l8.102 3.375m-10.008-.001l8.578 3.376" stroke="#000"/><ellipse rx="1.841" ry="1.857" transform="matrix(.86349 -.50437 -.00003 1 21.658 76.294)" fill="#000"/><path d="M14.192 71.177l8.102 3.374m-10.008.001l8.579 3.374" stroke="#000"/></svg>
